lib/brands/icons/raspberry-pi.svg

<svg xmlns="http://www.w3.org/2000/svg" fill="none" aria-hidden="true" viewBox="0 0 48 48"><g id="raspberry-pi-Icon"><g id="Group"><path id="Vector" fill="black" d="M18.1412 6.00051C17.9591 6.00612 17.7631 6.07341 17.5407 6.24883C16.996 6.03883 16.4678 5.96582 15.9955 6.39341C15.2662 6.29882 15.0292 6.49406 14.8496 6.72201C14.6895 6.7187 13.6516 6.55738 13.1756 7.26743C11.9795 7.12592 11.6014 7.97097 12.0298 8.75909C11.7854 9.13724 11.5323 9.51088 12.1036 10.2319C11.9015 10.6334 12.0268 11.0691 12.5029 11.5962C12.3772 12.1608 12.6242 12.559 13.0672 12.8694C12.9843 13.6419 13.7756 14.091 14.0118 14.251C14.1026 14.7011 14.2916 15.1259 15.1954 15.3607C15.3445 16.0316 15.8876 16.1474 16.4136 16.2881C14.6752 17.2987 13.1844 18.6282 13.1945 21.8904L12.9398 22.3447C10.9464 23.5569 9.15305 27.4531 11.9576 30.6199C12.1407 31.6112 12.4479 32.3232 12.7214 33.1112C13.1305 36.2866 15.8006 37.7735 16.5049 37.9494C17.5368 38.7354 18.6359 39.4812 20.1233 40.0038C21.5253 41.4497 23.0443 42.0009 24.5716 42C24.594 42 27.6854 41.4498 29.0875 40.0038C30.5748 39.4812 31.6739 38.7354 32.7059 37.9494C33.4101 37.7735 36.0802 36.2866 36.4893 33.1112C36.7628 32.3232 37.07 31.6112 37.2533 30.6199C40.0576 27.4528 38.2643 23.5564 36.2709 22.3442L36.0159 21.89C36.026 18.6281 34.5352 17.2985 32.7968 16.2877C33.3227 16.147 33.8659 16.0311 34.0149 15.3603C34.9186 15.1254 35.1078 14.7007 35.1985 14.2506C35.4348 14.0906 36.226 13.6414 36.1432 12.8689C36.5861 12.5585 36.8331 12.1602 36.7074 11.5958C37.1836 11.0686 37.3088 10.633 37.1067 10.2314C37.6781 9.51077 37.4246 9.13713 37.1806 8.75898C37.6087 7.97086 37.2309 7.1257 36.0344 7.26732C35.5585 6.55727 34.5209 6.71848 34.3603 6.72179C34.1808 6.49395 33.9439 6.29871 33.2146 6.3933C32.7423 5.96571 32.2141 6.03861 31.6694 6.24872C31.0225 5.73832 30.5945 6.14741 30.1056 6.30212C29.3225 6.04621 29.1434 6.39672 28.7586 6.53954C27.9045 6.35906 27.645 6.75196 27.2355 7.16667L26.7593 7.1572C25.4711 7.91636 24.8311 9.4622 24.6043 10.2569C24.3773 9.46209 23.7388 7.91625 22.4509 7.1572L21.9746 7.16667C21.5646 6.75196 21.3052 6.35906 20.4511 6.53954C20.0663 6.39672 19.8878 6.04621 19.104 6.30212C18.7832 6.20059 18.488 5.98961 18.1406 6.0004L9.29883 21.5267"/><path id="Vector_2" fill="#75A928" d="M15.5764 9.34028C18.9941 11.1023 20.981 12.5277 22.0695 13.7416C21.5121 15.9758 18.604 16.0778 17.5407 16.0151C17.7584 15.9138 17.9401 15.7924 18.0046 15.6059C17.7377 15.4163 16.7917 15.5859 16.1312 15.2149C16.3849 15.1623 16.5036 15.1111 16.6222 14.9239C15.9983 14.7249 15.3261 14.5533 14.9308 14.2236C15.1441 14.2262 15.3433 14.2714 15.6219 14.0781C15.0631 13.777 14.4667 13.5382 14.0033 13.0778C14.2922 13.0708 14.6038 13.075 14.6944 12.9687C14.1829 12.6518 13.7512 12.2994 13.394 11.9139C13.7983 11.9626 13.9691 11.9207 14.0669 11.8502C13.6802 11.4541 13.1908 11.1197 12.9575 10.6316C13.2577 10.7352 13.5324 10.7748 13.7304 10.6226C13.599 10.3262 13.0361 10.1513 12.7119 9.45854C13.0281 9.48927 13.3633 9.52748 13.4303 9.45854C13.2837 8.86082 13.0319 8.52474 12.785 8.17654C13.4615 8.16652 14.4865 8.17918 14.4401 8.12203L14.0218 7.69466C14.6826 7.51671 15.3587 7.72318 15.8496 7.87647C16.07 7.70259 15.8457 7.48268 15.5768 7.25815C16.1384 7.33314 16.6458 7.4622 17.1046 7.64004C17.3496 7.41881 16.9454 7.19748 16.7499 6.97625C17.6175 7.14076 17.9851 7.37212 18.3503 7.6037C18.6154 7.34966 18.3655 7.13372 18.1867 6.9126C18.8409 7.15486 19.1779 7.46771 19.5326 7.77648C19.6528 7.61416 19.8381 7.49513 19.6144 7.10354C20.0789 7.37124 20.4287 7.68673 20.6875 8.04021C20.9749 7.8572 20.8587 7.60701 20.8603 7.37631C21.343 7.76899 21.6494 8.18689 22.0243 8.59488C22.0999 8.53982 22.1659 8.35339 22.2244 8.05838C23.3759 9.17554 25.0032 11.9896 22.6426 13.1053C20.6338 11.4485 18.2345 10.2441 15.5757 9.34072L15.5764 9.34028Z"/><path id="Vector_3" fill="#75A928" d="M33.7106 9.34031C30.2934 11.1025 28.3065 12.5275 27.2181 13.7417C27.7755 15.9759 30.6834 16.0778 31.7467 16.0152C31.529 15.9139 31.3473 15.7924 31.283 15.606C31.5498 15.4163 32.4959 15.5859 33.1563 15.2149C32.9025 15.1623 32.7839 15.1111 32.6652 14.9239C33.2893 14.7249 33.9614 14.5533 34.3567 14.2236C34.1434 14.2263 33.9442 14.2714 33.6656 14.0782C34.2245 13.777 34.8209 13.5383 35.2843 13.0779C34.9952 13.0708 34.6837 13.075 34.5932 12.9687C35.1047 12.6518 35.5364 12.2994 35.8936 11.9139C35.4891 11.9627 35.3184 11.9207 35.2206 11.8503C35.6073 11.4542 36.0968 11.1197 36.3301 10.6317C36.0298 10.7352 35.7551 10.7748 35.5571 10.6226C35.6884 10.3262 36.2515 10.1513 36.5756 9.45858C36.2595 9.4893 35.9242 9.52752 35.8571 9.45858C36.0041 8.86064 36.2559 8.52455 36.5028 8.17636C35.8263 8.16634 34.8013 8.179 34.8477 8.12185L35.266 7.69437C34.6052 7.51653 33.9291 7.723 33.4382 7.87628C33.2178 7.70241 33.442 7.4825 33.7109 7.25797C33.1494 7.33285 32.6419 7.46202 32.1832 7.63986C31.9381 7.41863 32.3424 7.19729 32.5379 6.97606C31.6703 7.14058 31.3027 7.37194 30.9374 7.60352C30.6723 7.34948 30.9223 7.13353 31.1011 6.91241C30.4469 7.15468 30.1099 7.46752 29.7552 7.7763C29.6349 7.61398 29.4497 7.49494 29.6733 7.10336C29.2089 7.37106 28.8591 7.68655 28.6003 8.04003C28.3129 7.85701 28.4291 7.60671 28.4275 7.37612C27.9448 7.76881 27.6384 8.1866 27.2635 8.5947C27.1879 8.53964 27.1219 8.35321 27.0634 8.05809C25.9119 9.17536 24.2846 11.9894 26.6451 13.1052C28.6529 11.4479 31.0521 10.2437 33.711 9.34031H33.7106Z"/><path id="Vector_4" fill="#BC1142" d="M28.7824 32.0908C28.7943 34.1756 26.971 35.8747 24.7102 35.8856C22.4492 35.8966 20.6067 34.2154 20.5948 32.1305C20.5947 32.1173 20.5947 32.1041 20.5948 32.0908C20.5829 30.006 22.406 28.307 24.667 28.296C26.928 28.2849 28.7704 29.9661 28.7824 32.051V32.0908Z"/><path id="Vector_5" fill="#BC1142" d="M22.3203 21.3069C24.0166 22.4183 24.3224 24.9374 23.0033 26.9334C21.6842 28.9295 19.2398 29.6468 17.5435 28.5355C15.8472 27.4241 15.5415 24.905 16.8605 22.909C18.1796 20.9129 20.6241 20.1956 22.3203 21.3069Z"/><path id="Vector_6" fill="#BC1142" d="M26.8979 21.1057C25.2018 22.217 24.896 24.7362 26.215 26.7322C27.5341 28.7284 29.9785 29.4457 31.6748 28.3342C33.3711 27.2229 33.6769 24.7038 32.3577 22.7077C31.0387 20.7117 28.5943 19.9944 26.8979 21.1057Z"/><path id="Vector_7" fill="#BC1142" d="M13.8419 23.1238C15.6733 22.6329 14.4603 30.7003 12.9701 30.0384C11.331 28.7201 10.8031 24.8592 13.8419 23.1238Z"/><path id="Vector_8" fill="#BC1142" d="M35.0064 23.0233C33.1748 22.5325 34.3881 30.6002 35.8782 29.9383C37.5174 28.6199 38.0453 24.7586 35.0064 23.0233Z"/><path id="Vector_9" fill="#BC1142" d="M28.7835 17.0156C31.944 16.4819 34.5739 18.3597 34.4677 21.7868C34.3638 23.1007 27.6191 17.2112 28.7835 17.0156Z"/><path id="Vector_10" fill="#BC1142" d="M20.0516 16.915C16.8908 16.3813 14.2612 18.2595 14.3674 21.6864C14.4713 23.0002 21.2161 17.1107 20.0516 16.915Z"/><path id="Vector_11" fill="#BC1142" d="M24.5917 16.1158C22.7054 16.0667 20.895 17.5157 20.8906 18.3563C20.8855 19.3775 22.3821 20.4232 24.6046 20.4497C26.8742 20.4659 28.3224 19.6127 28.3297 18.5588C28.3381 17.3646 26.2655 16.0973 24.5917 16.1157V16.1158Z"/><path id="Vector_12" fill="#BC1142" d="M24.7063 37.0583C26.3509 36.9865 28.5577 37.588 28.5621 38.386C28.5894 39.1608 26.5607 40.9115 24.5973 40.8777C22.5638 40.9654 20.5699 39.212 20.596 38.6043C20.5655 37.7132 23.0719 37.0175 24.7063 37.0583Z"/><path id="Vector_13" fill="#BC1142" d="M18.6319 32.3292C19.8028 33.7398 20.3366 36.2181 19.3595 36.9487C18.435 37.5065 16.19 37.2768 14.5944 34.9844C13.5182 33.0609 13.6568 31.1035 14.4125 30.5285C15.5424 29.8402 17.2882 30.77 18.632 32.3292H18.6319Z"/><path id="Vector_14" fill="#BC1142" d="M30.547 31.8819C29.2801 33.3658 28.5746 36.0723 29.4988 36.944C30.3825 37.6212 32.7546 37.5265 34.5068 35.0952C35.7792 33.4622 35.3529 30.7351 34.6261 30.011C33.5465 29.176 31.9966 30.2447 30.547 31.8815V31.8819Z"/></g></g></svg>

<svg xmlns="http://www.w3.org/2000/svg" fill="none" aria-hidden="true" viewBox="0 0 48 48"><path fill="#000" d="M18.142 6c-.183.006-.378.073-.6.249-.546-.21-1.074-.283-1.546.144-.73-.094-.966.101-1.146.329-.16-.003-1.198-.165-1.674.545-1.196-.141-1.574.704-1.146 1.492-.244.378-.497.752.074 1.473-.202.401-.077.837.4 1.364-.126.565.12.963.564 1.273-.083.773.708 1.222.944 1.382.09.45.28.875 1.184 1.11.149.67.692.786 1.218.927-1.739 1.01-3.23 2.34-3.22 5.602l-.254.455c-1.993 1.212-3.787 5.108-.982 8.275.183.991.49 1.703.764 2.491.409 3.176 3.079 4.663 3.783 4.838 1.032.786 2.131 1.532 3.619 2.055C21.526 41.45 23.044 42 24.572 42c.022 0 3.114-.55 4.516-1.996 1.487-.523 2.586-1.269 3.618-2.055.704-.175 3.374-1.662 3.784-4.838.273-.788.58-1.5.764-2.491 2.804-3.167 1.01-7.064-.983-8.276l-.255-.454c.01-3.262-1.48-4.591-3.219-5.602.526-.141 1.07-.257 1.218-.928.904-.235 1.093-.66 1.184-1.11.236-.16 1.027-.609.945-1.381.442-.31.69-.709.564-1.273.476-.527.601-.963.4-1.365.57-.72.317-1.094.073-1.472.428-.788.05-1.633-1.146-1.492-.476-.71-1.514-.549-1.674-.545-.18-.228-.417-.423-1.146-.329-.472-.427-1-.354-1.545-.144-.647-.51-1.075-.102-1.564.053-.783-.256-.962.095-1.347.238-.854-.18-1.114.212-1.523.627l-.476-.01c-1.289.76-1.929 2.305-2.155 3.1-.227-.795-.866-2.34-2.154-3.1l-.476.01c-.41-.415-.67-.808-1.524-.627-.384-.143-.563-.494-1.347-.238-.32-.101-.616-.312-.963-.302L9.299 21.527"/><path fill="#75A928" d="M15.577 9.34c3.417 1.762 5.404 3.188 6.493 4.402-.558 2.234-3.466 2.336-4.529 2.273.218-.101.4-.223.464-.41-.267-.189-1.213-.02-1.873-.39.253-.053.372-.104.49-.291-.623-.2-1.296-.37-1.69-.7.213.002.412.047.69-.146-.559-.301-1.155-.54-1.618-1 .289-.007.6-.003.69-.11a6.23 6.23 0 0 1-1.3-1.054c.405.049.575.007.673-.064-.386-.396-.876-.73-1.11-1.218.301.103.576.143.774-.01-.132-.296-.694-.47-1.019-1.163.316.03.652.068.719 0-.147-.598-.399-.934-.646-1.282.677-.01 1.702.002 1.655-.055l-.418-.427c.661-.178 1.337.028 1.828.181.22-.173-.004-.393-.273-.618.562.075 1.07.204 1.528.382.245-.221-.16-.443-.355-.664.868.165 1.235.396 1.6.628.266-.254.016-.47-.163-.691.654.242.991.555 1.346.863.12-.162.305-.28.082-.672.464.267.814.583 1.073.936.287-.183.171-.433.173-.664.482.393.789.81 1.164 1.219.075-.055.141-.242.2-.537 1.151 1.118 2.778 3.932.418 5.047-2.009-1.657-4.408-2.86-7.067-3.764Zm18.134 0c-3.417 1.762-5.404 3.188-6.492 4.402.557 2.234 3.465 2.336 4.528 2.273-.218-.101-.4-.223-.464-.409.267-.19 1.213-.02 1.874-.391-.254-.053-.373-.104-.491-.291.624-.2 1.296-.37 1.691-.7-.213.002-.413.047-.691-.146.559-.301 1.155-.54 1.619-1-.29-.007-.6-.003-.691-.11a6.221 6.221 0 0 0 1.3-1.054c-.404.049-.575.007-.673-.064.387-.396.876-.73 1.11-1.218-.3.103-.576.143-.774-.01.132-.296.695-.47 1.019-1.163-.316.03-.651.069-.718 0 .147-.598.398-.934.645-1.283-.676-.01-1.701.003-1.655-.054l.418-.428c-.66-.177-1.337.029-1.828.182-.22-.174.004-.394.273-.618a6.637 6.637 0 0 0-1.527.382c-.245-.221.159-.443.354-.664-.867.165-1.235.396-1.6.628-.265-.255-.015-.47.164-.692-.655.243-.992.556-1.346.864-.12-.162-.306-.281-.082-.673a3.413 3.413 0 0 0-1.073.937c-.288-.183-.172-.433-.173-.664-.483.393-.79.81-1.164 1.219-.076-.055-.142-.242-.2-.537-1.152 1.117-2.779 3.931-.419 5.047 2.008-1.657 4.407-2.861 7.066-3.765Z"/><path fill="#BC1142" d="M28.783 32.09c.012 2.086-1.812 3.785-4.072 3.796-2.261.01-4.104-1.67-4.116-3.756v-.04c-.012-2.084 1.812-3.783 4.073-3.794 2.26-.011 4.103 1.67 4.115 3.755v.04ZM22.32 21.307c1.697 1.111 2.002 3.63.683 5.626-1.319 1.997-3.763 2.714-5.46 1.602-1.696-1.11-2.002-3.63-.683-5.626 1.32-1.996 3.764-2.713 5.46-1.602Zm4.579-.201c-1.697 1.111-2.002 3.63-.683 5.626 1.319 1.996 3.763 2.714 5.46 1.602 1.696-1.111 2.002-3.63.682-5.626-1.319-1.996-3.763-2.714-5.46-1.602Zm-13.057 2.018c1.832-.491.619 7.576-.871 6.914-1.64-1.318-2.167-5.179.871-6.914Zm21.165-.101c-1.832-.49-.618 7.577.872 6.915 1.639-1.318 2.167-5.18-.872-6.915Zm-6.223-6.007c3.16-.534 5.79 1.344 5.684 4.77-.104 1.315-6.848-4.575-5.684-4.77Zm-8.732-.101c-3.16-.534-5.79 1.345-5.684 4.771.104 1.314 6.848-4.575 5.684-4.771Zm4.54-.799c-1.886-.05-3.697 1.4-3.701 2.24-.005 1.021 1.491 2.067 3.714 2.094 2.27.016 3.718-.837 3.725-1.891.008-1.194-2.064-2.462-3.738-2.443Zm.115 20.942c1.645-.072 3.851.53 3.856 1.328.027.775-2.002 2.525-3.965 2.492-2.034.087-4.027-1.666-4.001-2.274-.03-.89 2.476-1.587 4.11-1.546Zm-6.075-4.728c1.171 1.41 1.705 3.888.728 4.619-.924.558-3.17.328-4.765-1.965-1.076-1.923-.938-3.88-.182-4.456 1.13-.688 2.876.242 4.22 1.801Zm11.915-.448c-1.267 1.484-1.972 4.19-1.048 5.062.884.677 3.256.582 5.008-1.849 1.273-1.633.846-4.36.12-5.084-1.08-.835-2.63.234-4.08 1.87Z"/></svg>
